docs/images/icons/factory.svg

<svg width="35" height="35" fill="none" xmlns="http://www.w3.org/2000/svg"><defs><clipPath id="a"><path fill="#fff" fill-opacity="0" d="M0 0h35v35H0z"/></clipPath></defs><path d="M0 0h35v35H0z"/><g clip-path="url(#a)"><path d="M2.73 3.67C1.38 3.67.7 2.8.7 1.09.7.87.87.7 1.09.7s.39.17.39.39c0 1.58.6 1.79 1.25 1.79 1.18 0 2.03 1.09 2.03 2.58 0 .22-.17.4-.39.4s-.39-.18-.39-.4c0-.89-.43-1.79-1.25-1.79Zm1.09-2.19c1.43 0 2.34.92 2.34 2.34 0 .22.18.4.4.4.22 0 .39-.18.39-.4C6.95 1.95 5.69.7 3.82.7a.39.39 0 0 0 0 .78Zm7.11 20a.39.39 0 0 0-.39.39v2.19c0 .22.18.39.39.39.22 0 .4-.17.4-.39v-2.19c0-.22-.18-.39-.4-.39Zm23.37 3.88v8.54c0 .22-.18.4-.4.4H2.18a.4.4 0 0 1-.39-.4V6.56c0-.22.18-.4.39-.4h4.38c.22 0 .39.18.39.4v11.32l6.51-4c.12-.08.28-.08.4-.01s.2.2.2.34v3.7l7.07-4.04c.12-.07.27-.07.39 0s.2.2.2.35v3.67l6.51-4.01c.12-.08.27-.08.39-.01.13.07.21.2.21.34v7.27h1.61c.52 0 1.84.1 2.82 1.09.69.69 1.04 1.63 1.04 2.79Zm-5.47-1.7h1.5c.98 0 1.78.79 1.78 1.76v8.09h1.4v-8.15c0-.94-.27-1.69-.8-2.23-.54-.54-1.39-.86-2.27-.86h-1.61v1.39Zm0 .79v9.06h2.49v-8.09c0-.54-.44-.97-.99-.97h-1.5ZM2.58 6.95v6.87h3.58V6.95H2.58Zm3.58 26.56v-18.9H2.58v18.9h3.58Zm.79 0h7.96v-6.17c0-.22.18-.39.4-.39h4.37c.22 0 .4.17.4.39v6.17h7.96V14.92l-6.51 4c-.12.08-.27.08-.4.01a.4.4 0 0 1-.2-.34v-3.7l-7.07 4.04c-.12.07-.27.07-.39 0a.4.4 0 0 1-.2-.34v-3.67l-6.32 3.89v14.7Zm12.34-5.78H15.7v5.78h3.59v-5.78Zm-3.98-3.28c.22 0 .39-.17.39-.39v-2.19c0-.22-.17-.39-.39-.39s-.4.17-.4.39v2.19c0 .22.18.39.4.39Zm4.37 0c.22 0 .4-.17.4-.39v-2.19c0-.22-.18-.39-.4-.39a.39.39 0 0 0-.39.39v2.19c0 .22.18.39.39.39Zm4.38 0c.22 0 .39-.17.39-.39v-2.19c0-.22-.17-.39-.39-.39s-.4.17-.4.39v2.19c0 .22.18.39.4.39Z" fill="#000"/></g></svg>

<svg width="35.000000" height="35.000000" viewBox="0 0 35 35" fill="none" xmlns="http://www.w3.org/2000/svg" xmlns:xlink="http://www.w3.org/1999/xlink">
	<desc>
			Created with Pixso.
	</desc>
	<defs>
		<clipPath id="clip339_268">
			<rect id="factory-svgrepo-com 1" width="35.000000" height="35.000000" fill="white" fill-opacity="0"/>
		</clipPath>
	</defs>
	<rect id="factory-svgrepo-com 1" width="35.000000" height="35.000000" fill="#FFFFFF" fill-opacity="0"/>
	<g clip-path="url(#clip339_268)">
		<path id="factory_1_" d="M2.73 3.67C1.38 3.67 0.7 2.8 0.7 1.09C0.7 0.87 0.87 0.7 1.09 0.7C1.31 0.7 1.48 0.87 1.48 1.09C1.48 2.67 2.08 2.88 2.73 2.88C3.91 2.88 4.76 3.97 4.76 5.46C4.76 5.68 4.59 5.86 4.37 5.86C4.15 5.86 3.98 5.68 3.98 5.46C3.98 4.57 3.55 3.67 2.73 3.67ZM3.82 1.48C5.25 1.48 6.16 2.4 6.16 3.82C6.16 4.04 6.34 4.22 6.56 4.22C6.78 4.22 6.95 4.04 6.95 3.82C6.95 1.95 5.69 0.7 3.82 0.7C3.61 0.7 3.43 0.87 3.43 1.09C3.43 1.31 3.61 1.48 3.82 1.48ZM10.93 21.48C10.72 21.48 10.54 21.65 10.54 21.87L10.54 24.06C10.54 24.28 10.72 24.45 10.93 24.45C11.15 24.45 11.33 24.28 11.33 24.06L11.33 21.87C11.33 21.65 11.15 21.48 10.93 21.48ZM34.3 25.36L34.3 33.9C34.3 34.12 34.12 34.3 33.9 34.3L2.18 34.3C1.97 34.3 1.79 34.12 1.79 33.9L1.79 6.56C1.79 6.34 1.97 6.16 2.18 6.16L6.56 6.16C6.78 6.16 6.95 6.34 6.95 6.56L6.95 17.88L13.46 13.88C13.58 13.8 13.74 13.8 13.86 13.87C13.98 13.94 14.06 14.07 14.06 14.21L14.06 17.91L21.13 13.87C21.25 13.8 21.4 13.8 21.52 13.87C21.64 13.94 21.72 14.07 21.72 14.22L21.72 17.89L28.23 13.88C28.35 13.8 28.5 13.8 28.62 13.87C28.75 13.94 28.83 14.07 28.83 14.21L28.83 21.48L30.44 21.48C30.96 21.48 32.28 21.58 33.26 22.57C33.95 23.26 34.3 24.2 34.3 25.36ZM28.83 23.66L30.33 23.66C31.31 23.66 32.11 24.45 32.11 25.42L32.11 33.51L33.51 33.51L33.51 25.36C33.51 24.42 33.24 23.67 32.71 23.13C32.17 22.59 31.32 22.27 30.44 22.27L28.83 22.27L28.83 23.66ZM28.83 24.45L28.83 33.51L31.32 33.51L31.32 25.42C31.32 24.88 30.88 24.45 30.33 24.45L28.83 24.45L28.83 24.45ZM2.58 6.95L2.58 13.82L6.16 13.82L6.16 6.95L2.58 6.95ZM6.16 33.51L6.16 14.61L2.58 14.61L2.58 33.51L6.16 33.51ZM6.95 33.51L14.91 33.51L14.91 27.34C14.91 27.12 15.09 26.95 15.31 26.95L19.68 26.95C19.9 26.95 20.08 27.12 20.08 27.34L20.08 33.51L28.04 33.51L28.04 14.92L21.53 18.92C21.41 19 21.26 19 21.13 18.93C21.01 18.86 20.93 18.73 20.93 18.59L20.93 14.89L13.86 18.93C13.74 19 13.59 19 13.47 18.93C13.35 18.86 13.27 18.73 13.27 18.59L13.27 14.92L6.95 18.81L6.95 33.51ZM19.29 27.73L15.7 27.73L15.7 33.51L19.29 33.51L19.29 27.73ZM15.31 24.45C15.53 24.45 15.7 24.28 15.7 24.06L15.7 21.87C15.7 21.65 15.53 21.48 15.31 21.48C15.09 21.48 14.91 21.65 14.91 21.87L14.91 24.06C14.91 24.28 15.09 24.45 15.31 24.45ZM19.68 24.45C19.9 24.45 20.08 24.28 20.08 24.06L20.08 21.87C20.08 21.65 19.9 21.48 19.68 21.48C19.47 21.48 19.29 21.65 19.29 21.87L19.29 24.06C19.29 24.28 19.47 24.45 19.68 24.45ZM24.06 24.45C24.28 24.45 24.45 24.28 24.45 24.06L24.45 21.87C24.45 21.65 24.28 21.48 24.06 21.48C23.84 21.48 23.66 21.65 23.66 21.87L23.66 24.06C23.66 24.28 23.84 24.45 24.06 24.45Z" fill="#000000" fill-opacity="1.000000" fill-rule="nonzero"/>
	</g>
</svg>
